X:1
T:Der Freischütz - Wir winden dir den Jungfernkranz
T:Der Freischütz - Wir winden dir den Jungfernkranz
T:Chor der Brautjungfern
T:Carl Maria von Weber
C:Carl Maria von Weber
%%score 1 [ 2 3 ] { ( 4 6 ) | ( 5 7 ) }
L:1/8
Q:1/4=70
M:2/4
K:C
V:1 treble nm="Sopran"
V:2 treble nm="Sopran"
V:3 treble nm="Alt"
V:4 treble nm="Piano"
V:6 treble 
V:5 bass 
V:7 bass 
V:1
"^Andante quasi allegretto" z4 | z4 | z4 | z4 | z4 | z4 | z4 | z4 | z4 | z2 z |:"^Solo" G | %11
w: ||||||||||1.Wir|
w: ||||||||||2.La-|
w: ||||||||||3.Sie|
w: ||||||||||4.Und|
{/d} (c/B/) (c/d/) e G |{/d} (c/B/) (c/d/) e z/ e/ | d3/2 e/ (d/c/) (B/A/) | (G/>F/) E2 G | %15
w: win- * den _ dir den|Jung- * fern- * kranz mit|weil- chen- blau- * er _|Sei- * de, wir|
w: ven- * del, _ Myrt und|Thy- * mi- * an, das|wächst in mei- * nem _|Gar- * ten. Wie|
w: hat _ ge- * spon- nen|sie- * ben _ Jahr den|gold- nen Flachs _ am _|Rok- * ken, das|
w: als _ ser _ scmu- cke|Frei- * er _ kam, warn|sie- ben Jahr _ ver- *|ron- * nen, und|
{/d} (c/B/) (c/d/) e G |{/d} (c/B/) (c/d/) e z/ e/ | d3/2 e/ (d/c/) (B/A/) | G3/2B/4A/4 G z | z4 | %20
w: füh- * ren _ dich zu|Spiel _ und _ Tanz, zu|Glück und Lie- * bes- *|freu- * * de!||
w: lang' _ bleibt _ doch der|Frei- * ers- * mann, ich|kann es kaum _ er- *|war- * * ten!||
w: Hemd- * lein _ ist wie|Spinn- * web _ klar, und|grün der Kranz _ der _|Lok- * * ken.||
w: weil _ er _ die Herz-|lieb- * ste _ nahm, hat|sie den Kranz _ ge- *|won- * * nen.||
 z4 | z4 | z4 | z4 | z4 | z4 | z4 | z4 | z2 z :| %29
w: |||||||||
w: |||||||||
w: |||||||||
w: |||||||||
V:2
 z4 | z4 | z4 | z4 | z4 | z4 | z4 | z4 | z4 | z2 z |: z | z4 | z4 | z4 | z4 | z4 | z4 | z4 | z4 | %19
w: |||||||||||||||||||
"^Chor"!<(! c2 e2!<)! |!>(! g2 e2!>)! |{/e} d3/4 c/4 B3/4 c/4 d e | c4 | (d/G/) G (d/G/) G | %24
w: Schö- ner|grü- ner,|schö- ner grü- ner Jung- fern-|kranz!|Weil- * chen- blau- * e|
 (c/d/) e3 | g3/2 (f/4e/4) (d/c/) (B/A/) | (G/>F/) E3 | z4 | z2 z :| %29
w: Sei- * de,|weil- chen- * blau- * e _|Sei- * de.|||
V:3
 z4 | z4 | z4 | z4 | z4 | z4 | z4 | z4 | z4 | z2 z |: z | z4 | z4 | z4 | z4 | z4 | z4 | z4 | z4 | %19
w: |||||||||||||||||||
!<(! E2 c2!<)! |!>(! e2 cG!>)! |{/G} F3/4 E/4 D3/4 E/4 F G | E4 | F F F F | E/G/ c3 | %25
w: Schö- ner|gru- ner, _|schö- ner grü- ner Jung- fern-|kranz!|Weil- chen- blau- e|Sei- * de,|
 e3/2 (d/4c/4) (B/A/) (G/F/) | (E/>D/) C3 | z4 | z2 z :| %29
w: weil- chen- * blau- * e _|Sei- * de.|||
V:4
!p! .[Ec].[Ge].[Ec].[Ge] | .[Ec].[Ge].[Ec].[EG] |{/d} (c/B/c/d/ .[Ee]/) z/ G | %3
{/d} c/B/c/d/ .[Ee]/ z/ ([ce] | [Bd]>[ce] [Bd]/[Ac]/[GB]/[FA]/ | [EG]/>[DF]/ !>![CE]2) G | %6
{/d} (c/B/c/d/ .[Ee]/) z/ G |{/d} (c/B/c/).d/ (e/d/e/).f/ | (a/g/){/g}.f/.e/ (g/f/d/>B/) | %9
 ((!>![DFG]2 [Ec])) |: z | [G,CE][G,CE][G,CE] z | [G,CE][G,CE][G,CE] z/ [ce]/ | %13
 ([Bd]>[ce] [Bd]/>[Ac]/[GB]/>[FA]/ | [EG]/>[DF]/ [CE]2) z | [G,CE][G,CE][G,CE] z | %16
 [G,CE][G,CE][G,CE] z/ ([ce]/ | [Bd]>[ce] [Bd]/>[Ac]/[GB]/>[^FA]/ | G3/2B/4A/4 G) z | %19
 .[CE].[EG].[CE].[EG] | .[CE].[EG].[CE].[CG] | .[B,DF].[FG].[B,DF].[FG] | .[CE].[EG].[CE].[EG] | %23
 .[B,DF].[FG].[B,DF].[FG] | .[CE].[EG].[CE].[EG] | (!>![eg]3/2[df]/4[ce]/4 [Bd]/[Ac]/[GB]/[FA]/ | %26
 [EG]/>[DF]/[CE]3/2) .g/(g/e/) | (e/c/)(c/G/) (Ge/>d/ | [Ec]3) :| %29
V:5
 .[C,G,].[G,,G,].[C,G,].[G,,G,] | .[C,G,].[G,,G,].[C,G,].G, | .[C,G,].[C,G,].[C,G,] z | %3
 .[C,G,].[C,G,].[C,G,] z | [G,,G,]4 | [C,G,] !>![C,G,]2 z | .[C,G,C].[C,G,C].[C,G,C] z | %7
 .[C,G,C].[C,G,C].[C,G,C] z | [G,E][G,E] [G,D][G,B,] | ((!>![G,B,]2 [C,C])) |: z | %11
 [C,,C,][C,,C,][C,,C,] z | [C,,C,][C,,C,][C,,C,] z | [G,,G,]4 | [C,G,] [C,G,]2 z | %15
 [C,,C,][C,,C,][C,,C,] z | [C,,C,][C,,C,][C,,C,] z | (D3 D/>C/ | B,4) | %19
 .[C,G,].[G,,G,].[C,G,].[G,,G,] | .[C,G,].[G,,G,].[C,G,].E, | .G,.[G,,G,].G,.[G,,G,] | %22
 .[C,G,].[G,,G,].[C,G,].[G,,G,] | .[G,,G,].G,.[G,,G,].G, | .[C,G,].[G,,G,].[C,G,].[G,,G,] | %25
 C, z z2 | z2 z/ .G/(G/E/) | (E/C/)(C/G,/) G,((!>![G,B,] | [C,C]3)) :| %29
V:6
 x4 | x4 | EE x2 | EE x2 | x4 | x4 | EE x2 | EE GG | cc BG | x3 |: x | x4 | x4 | x4 | x4 | x4 | %16
 x4 | x4 | D4 | x4 | x4 | x4 | x4 | x4 | x4 | x4 | x4 | x3 F | x3 :| %29
V:7
 x4 | x4 | x4 | x4 | x4 | x4 | x4 | x4 | x4 | x3 |: x | x4 | x4 | x4 | x4 | x4 | x4 | D,3 D, | %18
 G,4 | x4 | x4 | x4 | x4 | x4 | x4 | x4 | x4 | x4 | x3 :| %29

